X:1
T:Laetamini
T:José de Torres y Martinez Bravo [1665-1738]
T:The Bible. Pslam 31, verse 11
T:Laetamini
C:José de Torres y Martinez Bravo [1665-1738]
Z:The Bible. Pslam 31, verse 11
%%score [ 1 2 ]
L:1/8
M:3/2
K:F
V:1 treble nm="[Soprano]" snm="S."
V:2 treble nm="[Soprano]" snm="S."
V:1
 z4 z4 C4 | F2 E2 F2 G2 F2 G2 | A6 G2 F4 | A4 c6 B2 | A8 A2 B2 | c2 d2 c2 B2 A2 G2 | F4 E8 | %7
w: Lae-|ta- * * * * *|* mi- ni,|lae- ta- mi-|ni, lae- *|ta- * * * * *|* mi-|
 F8 z4 | z12 | z4 z4 F4 | B2 A2 B2 c2 B2 c2 | d6 c2 B4 | d4 f6 e2 | d8 d2 e2 | f2 g2 f2 e2 d2 c2 | %15
w: ni.||Lae-|ta- * * * * *|* mi- ni,|lae- ta- mi-|ni, lae- *|ta- * * * * *|
 B2 A2 B2 c2 B2 c2 | d4 c8 | B8 z4 | z4 z4 d4 | f6 e2 d4 | z4 A4 B4- | B4 A8 | B8 z4 | d4 e4 f4 | %24
w: |* mi-|ni,|lae-|ta- mi- ni,|lae- ta-|* mi-|ni,|et ex- sul-|
 B8 A4 | d4 e4 f4 | B8 A4 | z4 d2 _e2 c2 d2 | B8 A4- | A4 G8- | G4 ^F8 | G8 z4 | z4 c2 d2 B2 c2 | %33
w: ta- te,|et ex- sul-|ta- te,|iu- * * *||||sti,|iu- * * *|
 A8 G4- | G4 F8 | E8 F8 ||[M:4/4] z EEE F2 ED | ^C3 C D4 | z AAA B2 AG | ^F3 F G4 | z ddd _e2 dc | %41
w: ||* sti.|Et glo- ri- a- * *|* mi- ni,|et glo- ri- a- * *|* mi- ni,|et glo- ri- a- * *|
 =B3 B c4 | z2 df _ed cB | Ac=Bd cBAG | ^FE G4 F2 | G4 z2 Ac | BA GF EG F2- | F2 ED E4 | F8 || %49
w: * mi- ni|om- nes re- * cti _|co- * * * * * * *||rde, om- nes|re- * cti _ co- * *||rde.|
[M:3/4] z2 c2 d2 | c4 B2 | A4 B2 | A4 G2 | FE DE FG | AG FG AB | c2 =B4 | c6 | z6 | z2 G2 A2 | %59
w: A- lle-|lu- ia,|a- lle-|lu- ia,|a- * * * * *|lle- * * * * *|lu- *|ia,||a- lle-|
 G4 F2 | ED CD EF | GF EF GA | B2 A4 | G2 z2 z2 | z2 G2 A2 | G4 F2 | E4 D2 | C2 c2 B2 | AB cB AG | %69
w: lu- ia,|a- * * * * *|lle- * * * * *|lu- *|ia,|a- lle-|lu- *||lia, a- le-|lu- * * * * *|
 F3 G AB | G6 | F12 |] %72
w: ||ia.|
V:2
 z12 | z12 | z4 z4 C4 | F2 E2 F2 G2 F2 G2 | A6 G2 F4 | A4 c6 B2 | A8 F4 | B2 A2 B2 c2 B2 c2 | %8
w: ||Lae-|ta- * * * * *|* mi- ni,|lae- ta- mi-|ni, lae-|ta- * * * * *|
 d6 c2 B4 | d4 f6 e2 | d8 d2 e2 | f2 g2 f2 e2 d2 c2 | B4 A8 | B8 B2 c2 | d2 _e2 d2 c2 B2 A2 | %15
w: * mi- ni,|lae- ta- mi-|ni, lae- *|ta- * * * * *|mi- ni,|lae- ta- *||
 G2 F2 G2 A2 G2 A2 | B4 A8 | B8 d4 | f6 e2 d4 | z4 A4 B4 | c8 d4 | c8 z4 | d4 e4 f4 | B8 A4 | %24
w: |* mi-|ni, lae-|ta- mi- ni,|lae- ta-|* mi-|ni,|et ex- sul-|ta- te,|
 d4 e4 f4 | B8 A4 | z4 d2 _e2 c2 d2 | B8 A4 | z4 d2 _e2 c2 d2 | B8 c4 | A12 | G4 g2 a2 f2 g2 | %32
w: et ex- sul-|ta- te,|iu- * * *|* sti,|iu- * * *|* sti,|iu-|sti, iu- * * *|
 _e8 d4 | z4 c2 d2 B2 c2 | A8 B4 | G8 F8 ||[M:4/4] z8 | z eee f2 ed | ^c3 c d4 | z AAA B2 AG | %40
w: * sti,|iu- * * *||* sti.||Et glo- ri- a- * *|* mi- ni,|et glo- ri- a- * *|
 ^F3 F G4 | z ddd _e2 dc | =B3 B c4 | z2 df _ed cB | AcBc A2 Ac | BA GF EG^FA | GA B4 A2 | G8 | %48
w: * mi- ni,|et glo- ri- a- * *|* mi- ni,|om- nes re- * cti _|co- * * * rde, om- nes|re- * cti _ co- * * *|||
 F8 ||[M:3/4] z6 | z6 | z2 c2 d2 | c4 B2 | AG FG AB | cB AB cd | e2 d4 | c2 g2 a2 | g4 f2 | e4 f2 | %59
w: rde.|||A- lle-|lu- ia,|a- * * * * *||lle- lu-|ia, a- lle-|lu- lia,|a- lle-|
 e4 d2 | cB AB cd | ed cd ef | g2 ^f4 | g2 g2 a2 | g4 f2 | e4 d2 | c2 g2 f2 | ef gf ed | %68
w: lu- ia,|a- * * * * *|lle- * * * * *|lu- ia,|a- lle- lu-|ia, a-|le- lu-|ia, a- lle-|lu- * * * * *|
 cd _ed cB | A2 GF f2- | f2 e4 | f12 |] %72
w: |||ia.|

